X: 5
T: Missa Au travail suis / Gloria
N: Derived from Ock1002b-Missa_Au_travail_suis-Gloria.krn
C: Johannes Ockeghem
%%abc-version 2.0
%%abcx-abcm2ps-target-version 5.9.1 (29 Sep 2008)
%%abc-creator hum2abc beta
%%abcx-conversion-date 2019/02/17 07:26:13
%%abc-edited-by Jesse Rodin
%%abc-edited-by Jesse Rodin 8-17-2012
%%abcx-initial-encoding-date 2012/08/17/
%%humdrum-veritas 1943375743
%%humdrum-veritas-data 356912512
%%linebreak <none>
%%barnumbers 0
L: 1/4
M: 4/2
Q: 1/2=120
%%staves [1 2 3 4]
V: 1 clef=treble
V: 2 clef=treble-8
V: 3 clef=bass
V: 4 clef=bass
K: C
[V:1] D4F4 | 
[V:2] z8 | 
[V:3] z8 | 
[V:4] z8 | 
[V:1] E4A,4 | 
[V:2] z8 | 
[V:3] z4D,4 | 
[V:4] z8 | 
[V:1] A,4G,2G,2 | 
[V:2] z8 | 
[V:3] F,4E,4 | 
[V:4] z8 | 
[V:1] A,2C2D2E2- | 
[V:2] z8 | 
[V:3] A,,4z4 | 
[V:4] z8 | 
[V:1] EDG2F2E2- | 
[V:2] z8 | 
[V:3] G,4A,4 | 
[V:4] z8 | 
[V:1] EDD4^C2 | 
[V:2] z8 | 
[V:3] F,2D,2E,4 | 
[V:4] z8 | 
[V:1] D4z4 | 
[V:2] z2d2c4 | 
[V:3] D,4z4 | 
[V:4] z2F,2E,2A,2- | 
[V:1] z8 | 
[V:2] B4A4 | 
[V:3] z4z2D,2 | 
[V:4] A,2^G,2A,2F,2 | 
[V:1] z8 | 
[V:2] z8 | 
[V:3] C,2E,4C,2 | 
[V:4] E,2C,2E,2F,G,- | 
[V:1] z4z2E2 | 
[V:2] z4c4 | 
[V:3] B,,4A,,4 | 
[V:4] G,F,D,2z2A,2- | 
[V:1] E2E4E2 | 
[V:2] c2c4c2 | 
[V:3] A,,2A,,2A,,2A,,2 | 
[V:4] A,2A,2A,2A,2 | 
[V:1] D4G3E | 
[V:2] d4z4 | 
[V:3] B,,2G,,3A,,B,,C, | 
[V:4] D,4z4 | 
[V:1] F3GA2_B2- | 
[V:2] z8 | 
[V:3] D,3E,F,2G,2- | 
[V:4] z8 | 
[V:1] B2A4G2- | 
[V:2] z8 | 
[V:3] G,2F,2G,4 | 
[V:4] z8 | 
[V:1] G2^F2G4 | 
[V:2] z8 | 
[V:3] A,4G,4 | 
[V:4] z8 | 
[V:1] z8 | 
[V:2] a4a2a2 | 
[V:3] z8 | 
[V:4] F,4F,2F,2 | 
[V:1] z8 | 
[V:2] a2a2f2f2 | 
[V:3] z8 | 
[V:4] F,2F,2D,2D,2 | 
[V:1] z4A4 | 
[V:2] e4z4 | 
[V:3] z4z2F,2- | 
[V:4] C,4C4 | 
[V:1] A4A2A2 | 
[V:2] f4f4 | 
[V:3] F,2F,2F,2F,2 | 
[V:4] C2C4A,2 | 
[V:1] A2A2c4 | 
[V:2] f4e4 | 
[V:3] D,2D,2C,4 | 
[V:4] F,2F,2G,4 | 
[V:1] B2A4G2 | 
[V:2] f4e2c2 | 
[V:3] D,3C,A,,2G,2 | 
[V:4] F,2A,3G,E,2 | 
[V:1] F2E3DD2- | 
[V:2] d2c4A2 | 
[V:3] A,6F,2 | 
[V:4] D,2A,,2C,2D,2 | 
[V:1] D2^C2D4 | 
[V:2] A4z4 | 
[V:3] E,4D,4- | 
[V:4] A,,4A,4 | 
[V:1] z4E2E2 | 
[V:2] B2B2c2c2 | 
[V:3] D,4z4 | 
[V:4] z8 | 
[V:1] F2F2E2A2- | 
[V:2] d4A4 | 
[V:3] z8 | 
[V:4] z8 | 
[V:1] A2G2F3D | 
[V:2] c4d4 | 
[V:3] z8 | 
[V:4] z8 | 
[V:1] E4z4 | 
[V:2] A4a2a2- | 
[V:3] z8 | 
[V:4] z4F,2F,2 | 
[V:1] z8 | 
[V:2] a2g2f2_b2- | 
[V:3] z8 | 
[V:4] E,2E,2D,4 | 
[V:1] z8 | 
[V:2] b2a4g2- | 
[V:3] z8 | 
[V:4] C,4B,,4 | 
[V:1] z8 | 
[V:2] gfa3ge2 | 
[V:3] z8 | 
[V:4] A,,4C,4 | 
[V:1] z8 | 
[V:2] d2g4f2- | 
[V:3] z8 | 
[V:4] D,2E,4D,2 | 
[V:1] z8 | 
[V:2] f2e4d2 | 
[V:3] z8 | 
[V:4] G,2A,2F,4 | 
[V:1] z8 | 
[V:2] e4z4 | 
[V:3] z2C,4D,2 | 
[V:4] E,4z4 | 
[V:1] z8 | 
[V:2] z8 | 
[V:3] E,4F,4 | 
[V:4] z2C,4D,2 | 
[V:1] z2C4D2 | 
[V:2] z8 | 
[V:3] E,4z4 | 
[V:4] E,4F,4 | 
[V:1] E4F4 | 
[V:2] g4f4 | 
[V:3] C,4D,4 | 
[V:4] E,4A,4 | 
[V:1] G6FE | 
[V:2] d6c2 | 
[V:3] G,,8 | 
[V:4] B,6A,2 | 
[V:1] !fermata!E8 | 
[V:2] !fermata!c8 | 
[V:3] !fermata!A,,8 | 
[V:4] !fermata!A,8 | 
[V:1] A4A2A2- | 
[V:2] f4f2f2 | 
[V:3] z8 | 
[V:4] z8 | 
[V:1] A2A3GE2 | 
[V:2] f3ec4 | 
[V:3] z8 | 
[V:4] z8 | 
[V:1] z2G2A2B2- | 
[V:2] e4d4- | 
[V:3] z8 | 
[V:4] z8 | 
[V:1] B2A4^G2 | 
[V:2] d2c2B4 | 
[V:3] z8 | 
[V:4] z8 | 
[V:1] A4z4 | 
[V:2] A4z4 | 
[V:3] z4C,4 | 
[V:4] z4A,,4- | 
[V:1] z8 | 
[V:2] z8 | 
[V:3] D,4E,4 | 
[V:4] (3A,,2B,,4C,6- | 
[V:1] z4A4 | 
[V:2] z4c3B/A/ | 
[V:3] F,4E,2C,2 | 
[V:4] (3:2:2C,2D,4A,,3C, | 
[V:1] B2c3BG2 | 
[V:2] G2A3Bc2 | 
[V:3] D,2E,3F,G,2 | 
[V:4] B,,2A,,2E,4 | 
[V:1] A2F2E2DG | 
[V:2] z2d2cA2G | 
[V:3] F,2A,4D,E, | 
[V:4] D,4A,,2B,,2 | 
[V:1] FD2^CD4 ||  
[V:2] A3/B/G2A4 ||  
[V:3] F,G,E,2D,4 ||  
[V:4] A,,2z2D,4 ||  
[V:1]  [K:C] [K:clef=treble][M:2/1]A8 | 
[V:2]  [K:C] [K:clef=treble-8][M:2/1]z8 | 
[V:3]  [K:C] [K:clef=bass][M:2/1]F,8 | 
[V:4]  [K:C] [K:clef=bass][M:2/1]z8 | 
[V:1] A4B4 | 
[V:2] z8 | 
[V:3] F,4D,4 | 
[V:4] z8 | 
[V:1] c4A4- | 
[V:2] z8 | 
[V:3] C,4F,4- | 
[V:4] z8 | 
[V:1] A2G2G4 | 
[V:2] z8 | 
[V:3] F,4E,4 | 
[V:4] z8 | 
[V:1] F4A4- | 
[V:2] z8 | 
[V:3] D,8 | 
[V:4] z8 | 
[V:1] A2G2E4 | 
[V:2] z8 | 
[V:3] C,8 | 
[V:4] z8 | 
[V:1] z4D4- | 
[V:2] z8 | 
[V:3] D,8 | 
[V:4] z8 | 
[V:1] D4D4 | 
[V:2] z8 | 
[V:3] D,4D,4- | 
[V:4] z8 | 
[V:1] F6D2 | 
[V:2] z8 | 
[V:3] D,2C,2B,,2A,,2 | 
[V:4] z8 | 
[V:1] E4D4 | 
[V:2] z8 | 
[V:3] C,4D,4 | 
[V:4] z8 | 
[V:1] G6A2 | 
[V:2] z8 | 
[V:3] E,8 | 
[V:4] z8 | 
[V:1] _B4A4- | 
[V:2] z8 | 
[V:3] D,4C,4 | 
[V:4] z8 | 
[V:1] A4F4- | 
[V:2] z8 | 
[V:3] F,8 | 
[V:4] z8 | 
[V:1] F2D2E4 | 
[V:2] z8 | 
[V:3] G,8 | 
[V:4] z8 | 
[V:1] F8 | 
[V:2] z8 | 
[V:3] F,8 | 
[V:4] z8 | 
[V:1] z8 | 
[V:2] f8 | 
[V:3] z8 | 
[V:4] F,8- | 
[V:1] z8 | 
[V:2] f4d4 | 
[V:3] z8 | 
[V:4] F,8 | 
[V:1] z8 | 
[V:2] c4f4 | 
[V:3] z8 | 
[V:4] F,4D,4 | 
[V:1] z8 | 
[V:2] e4d4- | 
[V:3] z8 | 
[V:4] C,4F,4- | 
[V:1] z8 | 
[V:2] d2c2c4- | 
[V:3] z8 | 
[V:4] F,4E,4 | 
[V:1] z8 | 
[V:2] c4B4 | 
[V:3] z8 | 
[V:4] D,8 | 
[V:1] z8 | 
[V:2] c8 | 
[V:3] z8 | 
[V:4] C,8 | 
[V:1] A8- | 
[V:2] A8- | 
[V:3] D,8- | 
[V:4] F,8- | 
[V:1] A4A4 | 
[V:2] A4A4 | 
[V:3] D,4D,4 | 
[V:4] F,4F,4 | 
[V:1] A8 | 
[V:2] d8 | 
[V:3] D,8 | 
[V:4] F,8 | 
[V:1] c8- | 
[V:2] e8- | 
[V:3] A,,8- | 
[V:4] A,8- | 
[V:1] c4c4 | 
[V:2] e4e4 | 
[V:3] A,,4A,,4 | 
[V:4] A,4A,4 | 
[V:1] c4c4 | 
[V:2] e4e4 | 
[V:3] A,,4A,,4 | 
[V:4] A,4A,4 | 
[V:1] A4F4 | 
[V:2] f6d2 | 
[V:3] D,8 | 
[V:4] A,6G,F, | 
[V:1] z4F4 | 
[V:2] e4f4 | 
[V:3] C,4D,4 | 
[V:4] E,4D,4 | 
[V:1] G4_B4- | 
[V:2] e2c4_B2 | 
[V:3] E,8 | 
[V:4] G,8 | 
[V:1] B2A2A4- | 
[V:2] d8- | 
[V:3] D,4F,4- | 
[V:4] F,8 | 
[V:1] A4G4 | 
[V:2] d4c4 | 
[V:3] F,4E,4 | 
[V:4] D,4E,4 | 
[V:1] A4_B4 | 
[V:2] d6e2 | 
[V:3] D,6C,2 | 
[V:4] F,6E,2 | 
[V:1] !fermata!A8 | 
[V:2] !fermata!c8 | 
[V:3] !fermata!A,,8 | 
[V:4] !fermata!E,8 | 
[V:1] z8 | 
[V:2] z8 | 
[V:3] C,8 | 
[V:4] E,8 | 
[V:1] z8 | 
[V:2] z8 | 
[V:3] D,8 | 
[V:4] D,4F,4- | 
[V:1] z8 | 
[V:2] z8 | 
[V:3] C,8 | 
[V:4] F,2E,2E,4 | 
[V:1] z8 | 
[V:2] z8 | 
[V:3] D,8 | 
[V:4] D,4A,4- | 
[V:1] z8 | 
[V:2] z8 | 
[V:3] F,6F,2 | 
[V:4] A,2A,2A,4 | 
[V:1] z8 | 
[V:2] z8 | 
[V:3] F,4E,4 | 
[V:4] z2A,3G,G,2 | 
[V:1] z8 | 
[V:2] z8 | 
[V:3] F,4z4 | 
[V:4] F,2A,2B,2C2- | 
[V:1] z8 | 
[V:2] z8 | 
[V:3] C,4F,4 | 
[V:4] C2A,4F,2 | 
[V:1] z8 | 
[V:2] z8 | 
[V:3] G,4A,4- | 
[V:4] E,2C,4D,2 | 
[V:1] z8 | 
[V:2] z8 | 
[V:3] A,2F,2G,4 | 
[V:4] C,2F,4E,2 | 
[V:1] z4A4- | 
[V:2] z4f4- | 
[V:3] F,4z4 | 
[V:4] F,4z4 | 
[V:1] A2A2A4 | 
[V:2] f2f2f4 | 
[V:3] z8 | 
[V:4] z8 | 
[V:1] G4A4 | 
[V:2] e4c3B/A/ | 
[V:3] z8 | 
[V:4] z8 | 
[V:1] B2c4A2- | 
[V:2] G2A3Bc2 | 
[V:3] z8 | 
[V:4] z8 | 
[V:1] A2^G2A4 | 
[V:2] B4A4 | 
[V:3] z8 | 
[V:4] z8 | 
[V:1] A4c4- | 
[V:2] z8 | 
[V:3] A,,8 | 
[V:4] z8 | 
[V:1] c2B2G4 | 
[V:2] z8 | 
[V:3] C,8 | 
[V:4] z8 | 
[V:1] F4G2A2 | 
[V:2] z8 | 
[V:3] D,4E,2F,2- | 
[V:4] z8 | 
[V:1] BAGFE4 | 
[V:2] z8 | 
[V:3] F,2E,D,C,4 | 
[V:4] z8 | 
[V:1] z8 | 
[V:2] c3de2A2- | 
[V:3] z8 | 
[V:4] E,3F,G,2A,2- | 
[V:1] z8 | 
[V:2] A2d4c2 | 
[V:3] z8 | 
[V:4] A,2F,2E,4 | 
[V:1] z8 | 
[V:2] f2efg2f2- | 
[V:3] z8 | 
[V:4] D,2C,D,C,2D,2- | 
[V:1] z8 | 
[V:2] f2d4^c2 | 
[V:3] z8 | 
[V:4] D,2F,2E,4 | 
[V:1] z8 | 
[V:2] d4z4 | 
[V:3] z8 | 
[V:4] D,4z4 | 
[V:1] G8 | 
[V:2] c8 | 
[V:3] C,8 | 
[V:4] E,8 | 
[V:1] A8 | 
[V:2] d8 | 
[V:3] F,8 | 
[V:4] D,8 | 
[V:1] B8 | 
[V:2] e8 | 
[V:3] E,8 | 
[V:4] G,8 | 
[V:1] c8 | 
[V:2] e8 | 
[V:3] A,,8 | 
[V:4] A,8 | 
[V:1] G8 | 
[V:2] c8 | 
[V:3] C,8 | 
[V:4] E,8 | 
[V:1] G4G4 | 
[V:2] c4c4 | 
[V:3] E,4E,4 | 
[V:4] C,4C,4 | 
[V:1] A4F4 | 
[V:2] A4B4 | 
[V:3] D,4D,4 | 
[V:4] F,4F,4 | 
[V:1] E4E4 | 
[V:2] c4c4 | 
[V:3] C,4C,4 | 
[V:4] G,4G,4 | 
[V:1] A4A4 | 
[V:2] d4d4 | 
[V:3] F,4F,4 | 
[V:4] D,4D,4 | 
[V:1] G4A4 | 
[V:2] e4f4- | 
[V:3] E,4D,4- | 
[V:4] G,4F,4 | 
[V:1] B4c4- | 
[V:2] f4e4- | 
[V:3] D,2C,2A,,4- | 
[V:4] D,4A,4- | 
[V:1] c2A2A4 | 
[V:2] e4c4 | 
[V:3] A,,4C,4 | 
[V:4] A,8 | 
[V:1] z4G4 | 
[V:2] d8 | 
[V:3] B,,8 | 
[V:4] B,6A,B, | 
[V:1] A4c4- | 
[V:2] e8 | 
[V:3] A,,8 | 
[V:4] C4A,4- | 
[V:1] c2B2A4 | 
[V:2] A4d4- | 
[V:3] C,4D,4 | 
[V:4] A,4F,4 | 
[V:1] G4-G2E2 | 
[V:2] d2B2c4 | 
[V:3] E,8 | 
[V:4] G,8 | 
[V:1] F6G2 | 
[V:2] d4B2c2 | 
[V:3] D,6E,2 | 
[V:4] A,4z2G,2 | 
[V:1] A2B2c2A2- | 
[V:2] d2e4c2 | 
[V:3] F,2G,2A,4 | 
[V:4] F,2E,2A,,4 | 
[V:1] A2G2A2F2 | 
[V:2] d2B2A4 | 
[V:3] F,2G,2F,2D,2 | 
[V:4] D,2G,,2D,4 | 
[V:1] E2G3FD2 | 
[V:2] c2B3Ad2- | 
[V:3] C,2D,4F,2 | 
[V:4] A,,2G,,4D,2 | 
[V:1] E3GF4 & x4A4 |]  
[V:2] dB^c2d4 |]  
[V:3] E,4D,4 |]  
[V:4] A,,4A,4 |]  



